src/assets/Instagram.svg

<svg width="70" height="70" viewBox="0 0 70 45" fill="none" xmlns="http://www.w3.org/2000/svg">
<g filter="url(#filter0_d)">
<circle cx="35" cy="21.7999" r="16.7999" fill="#F53838"/>
</g>
<path d="M40.25 21.8C40.25 23.1924 39.6968 24.5277 38.7123 25.5123C37.7277 26.4969 36.3923 27.05 35 27.05C33.6076 27.05 32.2722 26.4969 31.2876 25.5123C30.3031 24.5277 29.75 23.1924 29.75 21.8C29.75 21.5008 29.7815 21.2085 29.8357 20.925H28V27.9198C28 28.4063 28.3937 28.8 28.8802 28.8H41.1215C41.3546 28.7995 41.5781 28.7066 41.7428 28.5416C41.9075 28.3765 42 28.1529 42 27.9198V20.925H40.1642C40.2185 21.2085 40.25 21.5008 40.25 21.8ZM35 25.3C35.4597 25.2999 35.9149 25.2092 36.3396 25.0332C36.7643 24.8571 37.1502 24.5992 37.4752 24.274C37.8002 23.9488 38.058 23.5628 38.2338 23.138C38.4096 22.7133 38.5001 22.258 38.5 21.7983C38.4998 21.3385 38.4092 20.8833 38.2331 20.4586C38.0571 20.0339 37.7991 19.648 37.474 19.323C37.1488 18.998 36.7628 18.7402 36.338 18.5644C35.9132 18.3886 35.4579 18.2981 34.9982 18.2983C34.0697 18.2985 33.1793 18.6675 32.523 19.3243C31.8666 19.981 31.498 20.8715 31.4982 21.8C31.4984 22.7285 31.8675 23.6189 32.5242 24.2752C33.1809 24.9316 34.0715 25.3002 35 25.3ZM39.2 18.125H41.2982C41.4376 18.125 41.5713 18.0697 41.6701 17.9713C41.7688 17.8729 41.8245 17.7394 41.825 17.6V15.5018C41.825 15.362 41.7695 15.2281 41.6707 15.1293C41.5719 15.0305 41.4379 14.975 41.2982 14.975H39.2C39.0603 14.975 38.9263 15.0305 38.8275 15.1293C38.7287 15.2281 38.6732 15.362 38.6732 15.5018V17.6C38.675 17.8888 38.9112 18.125 39.2 18.125ZM35 5C30.5443 5 26.2712 6.76999 23.1206 9.92061C19.9699 13.0712 18.2 17.3444 18.2 21.8C18.2 26.2556 19.9699 30.5288 23.1206 33.6794C26.2712 36.83 30.5443 38.6 35 38.6C37.2062 38.6 39.3908 38.1655 41.429 37.3212C43.4673 36.4769 45.3193 35.2394 46.8794 33.6794C48.4394 32.1194 49.6769 30.2674 50.5211 28.2291C51.3654 26.1908 51.8 24.0062 51.8 21.8C51.8 19.5938 51.3654 17.4092 50.5211 15.3709C49.6769 13.3326 48.4394 11.4806 46.8794 9.92061C45.3193 8.36058 43.4673 7.1231 41.429 6.27882C39.3908 5.43454 37.2062 5 35 5ZM43.75 28.6058C43.75 29.675 42.875 30.55 41.8057 30.55H28.1942C27.125 30.55 26.25 29.675 26.25 28.6058V14.9943C26.25 13.925 27.125 13.05 28.1942 13.05H41.8057C42.875 13.05 43.75 13.925 43.75 14.9943V28.6058Z" fill="white"/>
<defs>
<filter id="filter0_d" x="0.200073" y="0" width="69.5999" height="69.5999" filterUnits="userSpaceOnUse" color-interpolation-filters="sRGB">
<feFlood flood-opacity="0" result="BackgroundImageFix"/>
<feColorMatrix in="SourceAlpha" type="matrix" values="0 0 0 0 0 0 0 0 0 0 0 0 0 0 0 0 0 0 127 0"/>
<feOffset dy="13"/>
<feGaussianBlur stdDeviation="9"/>
<feColorMatrix type="matrix" values="0 0 0 0 0.0658854 0 0 0 0 0.0730469 0 0 0 0 0.1375 0 0 0 0.08 0"/>
<feBlend mode="normal" in2="BackgroundImageFix" result="effect1_dropShadow"/>
<feBlend mode="normal" in="SourceGraphic" in2="effect1_dropShadow" result="shape"/>
</filter>
</defs>
</svg>

<svg width="70" height="70" viewBox="0 0 70 45" fill="none" xmlns="http://www.w3.org/2000/svg"><g filter="url(#filter0_d)"><circle cx="35" cy="21.8" r="16.8" fill="#F53838"/></g><path d="M40.25 21.8a5.25 5.25 0 01-10.5 0c0-.3.032-.591.086-.875H28v6.995c0 .486.394.88.88.88h12.241a.88.88 0 00.879-.88v-6.995h-1.836c.054.284.086.576.086.875zM35 25.3a3.501 3.501 0 10-.002-7.002A3.501 3.501 0 0035 25.3zm4.2-7.175h2.098a.527.527 0 00.527-.525v-2.098a.527.527 0 00-.527-.527H39.2a.527.527 0 00-.527.527V17.6a.53.53 0 00.527.525zM35 5a16.8 16.8 0 100 33.6A16.8 16.8 0 0035 5zm8.75 23.606a1.95 1.95 0 01-1.944 1.944H28.194a1.95 1.95 0 01-1.944-1.944V14.994a1.95 1.95 0 011.944-1.944h13.612a1.95 1.95 0 011.944 1.944v13.612z" fill="#fff"/><defs><filter id="filter0_d" x=".2" y="0" width="69.6" height="69.6" filterUnits="userSpaceOnUse" color-interpolation-filters="sRGB"><feFlood flood-opacity="0" result="BackgroundImageFix"/><feColorMatrix in="SourceAlpha" values="0 0 0 0 0 0 0 0 0 0 0 0 0 0 0 0 0 0 127 0"/><feOffset dy="13"/><feGaussianBlur stdDeviation="9"/><feColorMatrix values="0 0 0 0 0.0658854 0 0 0 0 0.0730469 0 0 0 0 0.1375 0 0 0 0.08 0"/><feBlend in2="BackgroundImageFix" result="effect1_dropShadow"/><feBlend in="SourceGraphic" in2="effect1_dropShadow" result="shape"/></filter></defs></svg>
